X:7607
T:Tomeen O'Dea's
T:Tomaisin O'Dea's
O:england
R:reel
S:Kevin Finucane
M:C|
K:G
BGAG EGDG|EAAG A2GA|BGAG EGDG|1 EG~G2 EGGA:|2 EG~G2 EGGD||
|:GBdB eBdB|GBdB BAAB|1 GABd edBe|dBAc BGGD:|2 GABd edef|gbaf gedc||
